X: 142
T:Peter's Peerie Boat
R:jig
C:Tom Anderson
Z:Set Peter's Peerie Boat / Drummond Castle / Jim Anderson's Delight /
Z:Humors of Glendart
M:6/8
L:1/8
K:D
B/c/|:d2d D2D|EFG ABc|d2d Bed|cAA ABc|
d2d D2D|EFG ABc d2A GFE|FDD D2:||
A|d2d f2d|c2c e2c|B2B dcB|A3 A2F|
GFG BAG|F2A d3|E2G B3|C2E A3|
dcd fed|cBc edc|B^AB dcB|A3 A2F|
GFG BAG|F2A a2g|fed A[Bd]c|d3 D2||
